src/assets/outline/Briefcase.svg

<svg width="24" height="24" viewBox="0 0 24 24"  xmlns="http://www.w3.org/2000/svg">
<path d="M16.0002 22.7498H8.00023C3.38023 22.7498 2.52023 20.5998 2.30023 18.5098L1.55023 10.4998C1.44023 9.44977 1.41023 7.89977 2.45023 6.73977C3.35023 5.73977 4.84023 5.25977 7.00023 5.25977H17.0002C19.1702 5.25977 20.6602 5.74977 21.5502 6.73977C22.5902 7.89977 22.5602 9.44977 22.4502 10.5098L21.7002 18.4998C21.4802 20.5998 20.6202 22.7498 16.0002 22.7498ZM7.00023 6.74977C5.31023 6.74977 4.15023 7.07977 3.56023 7.73977C3.07023 8.27977 2.91023 9.10977 3.04023 10.3498L3.79023 18.3598C3.96023 19.9398 4.39023 21.2498 8.00023 21.2498H16.0002C19.6002 21.2498 20.0402 19.9398 20.2102 18.3498L20.9602 10.3598C21.0902 9.10977 20.9302 8.27977 20.4402 7.73977C19.8502 7.07977 18.6902 6.74977 17.0002 6.74977H7.00023Z" />
<path d="M16 6.75C15.59 6.75 15.25 6.41 15.25 6V5.2C15.25 3.42 15.25 2.75 12.8 2.75H11.2C8.75 2.75 8.75 3.42 8.75 5.2V6C8.75 6.41 8.41 6.75 8 6.75C7.59 6.75 7.25 6.41 7.25 6V5.2C7.25 3.44 7.25 1.25 11.2 1.25H12.8C16.75 1.25 16.75 3.44 16.75 5.2V6C16.75 6.41 16.41 6.75 16 6.75Z" />
<path d="M12 16.75C9.25 16.75 9.25 15.05 9.25 14.03V13C9.25 11.59 9.59 11.25 11 11.25H13C14.41 11.25 14.75 11.59 14.75 13V14C14.75 15.04 14.75 16.75 12 16.75ZM10.75 12.75C10.75 12.83 10.75 12.92 10.75 13V14.03C10.75 15.06 10.75 15.25 12 15.25C13.25 15.25 13.25 15.09 13.25 14.02V13C13.25 12.92 13.25 12.83 13.25 12.75C13.17 12.75 13.08 12.75 13 12.75H11C10.92 12.75 10.83 12.75 10.75 12.75Z" />
<path d="M14 14.7702C13.63 14.7702 13.3 14.4902 13.26 14.1102C13.21 13.7002 13.5 13.3202 13.91 13.2702C16.55 12.9402 19.08 11.9402 21.21 10.3902C21.54 10.1402 22.01 10.2202 22.26 10.5602C22.5 10.8902 22.43 11.3602 22.09 11.6102C19.75 13.3102 16.99 14.4002 14.09 14.7702C14.06 14.7702 14.03 14.7702 14 14.7702Z" />
<path d="M10.0002 14.7799C9.97023 14.7799 9.94023 14.7799 9.91023 14.7799C7.17023 14.4699 4.50023 13.4699 2.19023 11.8899C1.85023 11.6599 1.76023 11.1899 1.99023 10.8499C2.22023 10.5099 2.69023 10.4199 3.03023 10.6499C5.14023 12.0899 7.57023 12.9999 10.0702 13.2899C10.4802 13.3399 10.7802 13.7099 10.7302 14.1199C10.7002 14.4999 10.3802 14.7799 10.0002 14.7799Z" />
</svg>

<?xml version="1.0" encoding="UTF-8"?>
<svg width="24" height="24" viewBox="0 0 24 24" xmlns="http://www.w3.org/2000/svg">
 <path d="m16 22.75h-8c-4.62 0-5.48-2.15-5.7-4.24l-0.75-8.01c-0.11-1.05-0.14-2.6 0.9-3.76 0.9-1 2.39-1.48 4.55-1.48h10c2.17 0 3.66 0.49 4.55 1.48 1.04 1.16 1.01 2.71 0.9 3.77l-0.75 7.99c-0.22 2.1-1.08 4.25-5.7 4.25zm-9-16c-1.69 0-2.85 0.33-3.44 0.99-0.49 0.54-0.65 1.37-0.52 2.61l0.75 8.01c0.17 1.58 0.6 2.89 4.21 2.89h8c3.6 0 4.04-1.31 4.21-2.9l0.75-7.99c0.13-1.25-0.03-2.08-0.52-2.62-0.59-0.66-1.75-0.99-3.44-0.99h-10z"/>
 <path d="m16 6.75c-0.41 0-0.75-0.34-0.75-0.75v-0.8c0-1.78 0-2.45-2.45-2.45h-1.6c-2.45 0-2.45 0.67-2.45 2.45v0.8c0 0.41-0.34 0.75-0.75 0.75s-0.75-0.34-0.75-0.75v-0.8c0-1.76 0-3.95 3.95-3.95h1.6c3.95 0 3.95 2.19 3.95 3.95v0.8c0 0.41-0.34 0.75-0.75 0.75z"/>
 <path d="m12 16.75c-2.75 0-2.75-1.7-2.75-2.72v-1.03c0-1.41 0.34-1.75 1.75-1.75h2c1.41 0 1.75 0.34 1.75 1.75v1c0 1.04 0 2.75-2.75 2.75zm-1.25-4v0.25 1.03c0 1.03 0 1.22 1.25 1.22s1.25-0.16 1.25-1.23v-1.02-0.25h-0.25-2-0.25z"/>
 <path d="m14 14.77c-0.37 0-0.7-0.28-0.74-0.66-0.05-0.41 0.24-0.79 0.65-0.84 2.64-0.33 5.17-1.33 7.3-2.88 0.33-0.25 0.8-0.17 1.05 0.17 0.24 0.33 0.17 0.8-0.17 1.05-2.34 1.7-5.1 2.79-8 3.16h-0.09z"/>
 <path d="m10 14.78h-0.08997c-2.74-0.31-5.41-1.31-7.72-2.89-0.34-0.23-0.43-0.7-0.2-1.04s0.7-0.43 1.04-0.2c2.11 1.44 4.54 2.35 7.04 2.64 0.41 0.05 0.71 0.42 0.66 0.83-0.03 0.38-0.35 0.66-0.73 0.66z"/>
</svg>
